X:244
T:Danza (CT 005)
R:Danza
C:Tradicional
S:Msica Tradicional Asturiana, (C) Tello & Tito. Asturies, 2001.
S:http://pagina.de/MusTradAst <telloytito@asturies.org>
N:Danza, variante de CT 004, transcrita en el mismo sitio.
N:Se efecta de idntica manera.
A:Asturies
O:Cenera (Mieres)
Z:Cancioneru de Torner 005
M:6/8
L:1/8
Q:3/8=80
K:C
|c2 c B2 G|A3 G2 G|G6-|G3 z3|c2 c B2 G|A3 G2 B|B6|
c2 c B2 G|A3 G2 A|G6-|G3 z3|c2 c B2 G|A3 G2 G|G6-|G3 z3|
c2 c B2 G|A3 G2 B|B6|c2 c B2 G|A3 G2 A|G6-|G3 z3||
W:Amor mo, vienes tarde (bis)
W:y te marchas muy temprano, (bis)
W:eso si que me parece
W:vesita de cirujano.
W:
